X:534
T: "Der Eifersuechtige"
N: Z1214
O: Europa, Mitteleuropa, Schweiz; Elsass
R: Liebes - Lied
M: 3/8
L: 1/16
K: A
c2e2d2 | B2c2^d2 | e3fe2 |
c2e2d2 | B2c2d2 | c4z2 |
c2e2c2 | B2d2B2 | A3BA2 |
c2e2c2 | B2d2B2 | A4z2

@@@ Tune index: 10292
